X:1
T:Young Alanthia
M:3/4
L:1/4
K:G
 G/2A/2| B B/2B/2 B| B A G| c d c| B2 G/2B/2| d e d| c B G/2A/2| B B B/2A/2|\
 G z||
